X:444
T:Welly Boot
M:4/4
K:G
L:1/8
DEDE GDGB | AGFA B2 G2 | cBAc BAGB | A2 A2 B2 G2 |
DEDE GDGB | AGFA B2 G2 | cBAc BAGB | A2 F2 G4 :||
GABc dBdg | edce d2 B2 | cBAc BAGB | A2 A2 B2 G2 |
GABc dBdg | edce d2 B2 | cBAc BAGB | A2 F2 G4 :||
